CSETWebApi/CSETWeb_Api/CSETWeb_ApiCore/Diagram/src/main/webapp/img/lib/cumulus/switch.svg

<svg xmlns="http://www.w3.org/2000/svg" viewBox="0 0 48 10"><rect x=".5" y=".5" width="47" height="9" rx="1.5" fill="#fff"/><path d="M46 1a1 1 0 0 1 1 1v6a1 1 0 0 1-1 1H2a1 1 0 0 1-1-1V2a1 1 0 0 1 1-1h44m0-1H2a2 2 0 0 0-2 2v6a2 2 0 0 0 2 2h44a2 2 0 0 0 2-2V2a2 2 0 0 0-2-2zM32 3.95h2.3v2H32z" fill="#8c9aa6"/><path d="M1.548 1.632h25.795v6.622H1.548z" fill="#364149" paint-order="normal"/><text xml:space="preserve" x="5.362" y="6.939" font-size="40" font-family="sans-serif" letter-spacing="0" word-spacing="0" fill="#fff"><tspan x="5.362" y="6.939" font-size="5.333">Switch</tspan></text><path d="M36.382 3.95h2.3v2h-2.3zm4.38 0h2.3v2h-2.3z" fill="#8c9aa6"/></svg>

<?xml version="1.0" encoding="UTF-8" standalone="no"?>
<svg
   xmlns:dc="http://purl.org/dc/elements/1.1/"
   xmlns:cc="http://creativecommons.org/ns#"
   xmlns:rdf="http://www.w3.org/1999/02/22-rdf-syntax-ns#"
   xmlns:svg="http://www.w3.org/2000/svg"
   xmlns="http://www.w3.org/2000/svg"
   xmlns:sodipodi="http://sodipodi.sourceforge.net/DTD/sodipodi-0.dtd"
   xmlns:inkscape="http://www.inkscape.org/namespaces/inkscape"
   viewBox="0 0 48 10"
   version="1.1"
   id="svg1030"
   sodipodi:docname="switch.svg"
   inkscape:version="0.92.3 (2405546, 2018-03-11)">
  <metadata
     id="metadata1034">
    <rdf:RDF>
      <cc:Work
         rdf:about="">
        <dc:format>image/svg+xml</dc:format>
        <dc:type
           rdf:resource="http://purl.org/dc/dcmitype/StillImage" />
        <dc:title>cumulus-networks-netq-server</dc:title>
      </cc:Work>
    </rdf:RDF>
  </metadata>
  <sodipodi:namedview
     pagecolor="#ffffff"
     bordercolor="#666666"
     borderopacity="1"
     objecttolerance="10"
     gridtolerance="10"
     guidetolerance="10"
     inkscape:pageopacity="0"
     inkscape:pageshadow="2"
     inkscape:window-width="1920"
     inkscape:window-height="1017"
     id="namedview1032"
     showgrid="false"
     inkscape:zoom="21.463637"
     inkscape:cx="25.025795"
     inkscape:cy="5.3443967"
     inkscape:window-x="-8"
     inkscape:window-y="-8"
     inkscape:window-maximized="1"
     inkscape:current-layer="svg1030" />
  <defs
     id="defs1014">
    <style
       id="style1012">.cls-1{fill:#fff;}.cls-2{fill:#8c9aa6;}.cls-3{fill:#83389b;}.cls-4{fill:none;stroke:#8c9aa6;stroke-linejoin:round;}</style>
  </defs>
  <title
     id="title1016">cumulus-networks-netq-server</title>
  <rect
     class="cls-1"
     x="0.5"
     y="0.5"
     width="47"
     height="9"
     rx="1.5"
     ry="1.5"
     id="rect1018"
     style="fill:#ffffff" />
  <path
     class="cls-2"
     d="m 46,1 a 1,1 0 0 1 1,1 V 8 A 1,1 0 0 1 46,9 H 2 A 1,1 0 0 1 1,8 V 2 A 1,1 0 0 1 2,1 H 46 M 46,0 H 2 A 2,2 0 0 0 0,2 v 6 a 2,2 0 0 0 2,2 H 46 A 2,2 0 0 0 48,8 V 2 A 2,2 0 0 0 46,0 Z"
     id="path1020"
     inkscape:connector-curvature="0"
     style="fill:#8c9aa6" />
  <rect
     class="cls-2"
     x="32"
     y="3.9491742"
     width="2.2892845"
     height="2"
     id="rect1022"
     style="fill:#8c9aa6;stroke-width:0.47846469" />
  <rect
     style="opacity:1;vector-effect:none;fill:#364149;fill-opacity:1;stroke:none;stroke-width:12.77050972;stroke-linecap:round;stroke-linejoin:round;stroke-miterlimit:4;stroke-dasharray:none;stroke-dashoffset:0;stroke-opacity:1;paint-order:normal"
     id="rect1270"
     width="25.795469"
     height="6.6218257"
     x="1.5483871"
     y="1.6321208" />
  <text
     xml:space="preserve"
     style="font-style:normal;font-weight:normal;font-size:40px;line-height:1.25;font-family:sans-serif;letter-spacing:0px;word-spacing:0px;fill:#ffffff;fill-opacity:1;stroke:none"
     x="5.3618469"
     y="6.9392462"
     id="text1274"><tspan
       sodipodi:role="line"
       id="tspan1272"
       x="5.3618469"
       y="6.9392462"
       style="font-size:5.33333349px;line-height:1.25;fill:#ffffff">Switch</tspan></text>
  <rect
     class="cls-2"
     x="36.381721"
     y="3.9491742"
     width="2.2892845"
     height="2"
     id="rect1022-7"
     style="fill:#8c9aa6;stroke-width:0.47846469" />
  <rect
     class="cls-2"
     x="40.763443"
     y="3.9491742"
     width="2.2892845"
     height="2"
     id="rect1022-4"
     style="fill:#8c9aa6;stroke-width:0.47846469" />
</svg>
